X:994
T:Maghera Mountain
R:reel
C:Martin Hayes
Z:id:hn-reel-994
M:C|
L:1/8
K:Gdor
d2cA BGGF | DGGF GABc | dBcA BGGB | AFcF dFcF |
dBcA BGGF | DGGF GBAG | FGAc fcAc |1 B2AB GABc :|2 B2AB GBAG ||
|: F2Ac f2ef | ~g3a gfef | ecgc acgc | ecgc acgc |
BGGF G3B | AFFE F2GA | Bdge fdcA |1 B2AB GBAG :|2 B2AB GABc ||

